X:1
T:The Brass-Mounted Army
M:2/4
L:1/8
K:C
 G| cc c3/2 C/2| E G2 E| FE FG| E3 G| cc c3/2 C/2| E G2 G| cB cd| c3 G|\
 c c/2c/2 c3/2 C/2| E G2 G| e2 e3/2 d/2| d c2 G| c3/2 C/2 CC| E G2 G|\
 c3/2 B/2 cd| c3||
